badges/audacy-light.svg

<svg width="109" height="40" viewBox="0 0 109 40" fill="none" xmlns="http://www.w3.org/2000/svg">
<rect x="0.5" y="0.5" width="108" height="39" rx="4.5" fill="white"/>
<g clip-path="url(#clip0_109_1598)">
<path d="M10.5247 29.4753C8.68315 27.6337 8 24.6338 8 20C8 15.3663 8.68315 12.3663 10.5247 10.5247C12.3663 8.68315 15.3663 8 20 8C24.6338 8 27.6337 8.68315 29.4753 10.5247C31.3169 12.3663 32 15.3663 32 20C32 24.6338 31.3169 27.6337 29.4753 29.4753C27.6337 31.3169 24.6338 32 20 32C15.3663 32 12.3663 31.3169 10.5247 29.4753Z" fill="#FE5000"/>
<path d="M19.3867 22.8968C19.3867 25.2317 17.49 27.1249 15.1504 27.1249C12.8113 27.1249 10.9141 25.2317 10.9141 22.8968C10.9141 20.5617 12.8108 18.6691 15.1504 18.6691C17.49 18.6691 19.3867 20.5617 19.3867 22.8968ZM21.4425 12.875H15.3958L23.0383 27.125H29.086L21.4429 12.875H21.4425Z" fill="white"/>
</g>
<path d="M39.7486 14.5V8.31818H40.4972V13.8359H43.3707V14.5H39.7486ZM44.4332 14.5V9.86364H45.1456V14.5H44.4332ZM44.7955 9.09091C44.6566 9.09091 44.5369 9.04362 44.4363 8.94904C44.3377 8.85446 44.2884 8.74077 44.2884 8.60795C44.2884 8.47514 44.3377 8.36145 44.4363 8.26687C44.5369 8.17229 44.6566 8.125 44.7955 8.125C44.9343 8.125 45.053 8.17229 45.1516 8.26687C45.2522 8.36145 45.3026 8.47514 45.3026 8.60795C45.3026 8.74077 45.2522 8.85446 45.1516 8.94904C45.053 9.04362 44.9343 9.09091 44.7955 9.09091ZM49.7344 10.902L49.0945 11.0831C49.0543 10.9764 48.9949 10.8728 48.9164 10.7722C48.8399 10.6696 48.7353 10.585 48.6025 10.5186C48.4697 10.4522 48.2996 10.419 48.0924 10.419C47.8086 10.419 47.5722 10.4844 47.383 10.6152C47.1959 10.744 47.1023 10.908 47.1023 11.1072C47.1023 11.2843 47.1667 11.4242 47.2955 11.5268C47.4243 11.6294 47.6255 11.715 47.8992 11.7834L48.5874 11.9524C49.0019 12.053 49.3108 12.207 49.5141 12.4142C49.7173 12.6195 49.8189 12.8841 49.8189 13.2081C49.8189 13.4737 49.7425 13.7112 49.5895 13.9205C49.4386 14.1297 49.2273 14.2947 48.9557 14.4155C48.684 14.5362 48.3681 14.5966 48.0079 14.5966C47.535 14.5966 47.1436 14.494 46.8337 14.2887C46.5238 14.0835 46.3276 13.7836 46.2451 13.3892L46.9212 13.2202C46.9856 13.4697 47.1073 13.6568 47.2864 13.7816C47.4676 13.9064 47.704 13.9688 47.9958 13.9688C48.3278 13.9688 48.5914 13.8983 48.7866 13.7575C48.9838 13.6146 49.0824 13.4435 49.0824 13.2443C49.0824 13.0833 49.0261 12.9485 48.9134 12.8398C48.8007 12.7292 48.6276 12.6467 48.3942 12.5923L47.6215 12.4112C47.1969 12.3106 46.885 12.1547 46.6858 11.9434C46.4886 11.7301 46.39 11.4634 46.39 11.1435C46.39 10.8819 46.4634 10.6504 46.6103 10.4492C46.7592 10.248 46.9615 10.09 47.217 9.97532C47.4746 9.86062 47.7664 9.80327 48.0924 9.80327C48.5512 9.80327 48.9114 9.90388 49.173 10.1051C49.4366 10.3063 49.6237 10.572 49.7344 10.902ZM52.9076 9.86364V10.4673H50.5049V9.86364H52.9076ZM51.2052 8.75284H51.9175V13.1719C51.9175 13.3731 51.9467 13.524 52.0051 13.6246C52.0654 13.7232 52.1419 13.7897 52.2345 13.8239C52.329 13.8561 52.4287 13.8722 52.5333 13.8722C52.6118 13.8722 52.6762 13.8681 52.7265 13.8601C52.7768 13.85 52.817 13.842 52.8472 13.8359L52.9921 14.4759C52.9438 14.494 52.8764 14.5121 52.7899 14.5302C52.7033 14.5503 52.5937 14.5604 52.4608 14.5604C52.2596 14.5604 52.0624 14.5171 51.8692 14.4306C51.6781 14.344 51.5191 14.2122 51.3923 14.0352C51.2675 13.8581 51.2052 13.6347 51.2052 13.3651V8.75284ZM55.8732 14.5966C55.4265 14.5966 55.0411 14.498 54.7172 14.3008C54.3952 14.1016 54.1467 13.8239 53.9716 13.4677C53.7985 13.1095 53.712 12.6929 53.712 12.218C53.712 11.7431 53.7985 11.3246 53.9716 10.9624C54.1467 10.5981 54.3902 10.3144 54.7021 10.1112C55.016 9.90589 55.3822 9.80327 55.8008 9.80327C56.0423 9.80327 56.2807 9.84351 56.5162 9.92401C56.7516 10.0045 56.9659 10.1353 57.1591 10.3164C57.3523 10.4955 57.5062 10.733 57.6209 11.0288C57.7356 11.3246 57.793 11.6888 57.793 12.1214V12.4233H54.2191V11.8075H57.0685C57.0685 11.5459 57.0162 11.3125 56.9116 11.1072C56.8089 10.902 56.6621 10.74 56.4709 10.6213C56.2817 10.5025 56.0584 10.4432 55.8008 10.4432C55.517 10.4432 55.2715 10.5136 55.0643 10.6545C54.859 10.7933 54.7011 10.9744 54.5904 11.1978C54.4797 11.4212 54.4244 11.6606 54.4244 11.9162V12.3267C54.4244 12.6768 54.4847 12.9737 54.6055 13.2172C54.7282 13.4586 54.8983 13.6428 55.1156 13.7695C55.3329 13.8943 55.5855 13.9567 55.8732 13.9567C56.0604 13.9567 56.2294 13.9305 56.3803 13.8782C56.5333 13.8239 56.6651 13.7434 56.7757 13.6367C56.8864 13.5281 56.9719 13.3932 57.0323 13.2322L57.7205 13.4254C57.6481 13.6589 57.5263 13.8641 57.3553 14.0412C57.1842 14.2163 56.973 14.3531 56.7214 14.4517C56.4699 14.5483 56.1871 14.5966 55.8732 14.5966ZM59.589 11.7109V14.5H58.8766V9.86364H59.5648V10.5881H59.6252C59.7338 10.3526 59.8989 10.1635 60.1202 10.0206C60.3416 9.87571 60.6273 9.80327 60.9775 9.80327C61.2914 9.80327 61.5661 9.86766 61.8015 9.99645C62.0369 10.1232 62.2201 10.3164 62.3509 10.576C62.4817 10.8336 62.5471 11.1596 62.5471 11.554V14.5H61.8347V11.6023C61.8347 11.238 61.7401 10.9543 61.551 10.7511C61.3618 10.5458 61.1022 10.4432 60.7722 10.4432C60.5448 10.4432 60.3416 10.4925 60.1625 10.5911C59.9854 10.6897 59.8455 10.8336 59.7429 11.0227C59.6403 11.2119 59.589 11.4413 59.589 11.7109ZM68.1229 14.5966C67.7044 14.5966 67.3371 14.497 67.0212 14.2978C66.7073 14.0985 66.4618 13.8198 66.2847 13.4616C66.1096 13.1035 66.0221 12.6849 66.0221 12.206C66.0221 11.723 66.1096 11.3014 66.2847 10.9412C66.4618 10.581 66.7073 10.3013 67.0212 10.1021C67.3371 9.90288 67.7044 9.80327 68.1229 9.80327C68.5415 9.80327 68.9077 9.90288 69.2216 10.1021C69.5376 10.3013 69.7831 10.581 69.9581 10.9412C70.1352 11.3014 70.2238 11.723 70.2238 12.206C70.2238 12.6849 70.1352 13.1035 69.9581 13.4616C69.7831 13.8198 69.5376 14.0985 69.2216 14.2978C68.9077 14.497 68.5415 14.5966 68.1229 14.5966ZM68.1229 13.9567C68.4409 13.9567 68.7025 13.8752 68.9077 13.7122C69.113 13.5492 69.2649 13.3349 69.3635 13.0692C69.4621 12.8036 69.5114 12.5159 69.5114 12.206C69.5114 11.8961 69.4621 11.6073 69.3635 11.3397C69.2649 11.072 69.113 10.8557 68.9077 10.6907C68.7025 10.5257 68.4409 10.4432 68.1229 10.4432C67.805 10.4432 67.5434 10.5257 67.3381 10.6907C67.1329 10.8557 66.9809 11.072 66.8823 11.3397C66.7837 11.6073 66.7344 11.8961 66.7344 12.206C66.7344 12.5159 66.7837 12.8036 66.8823 13.0692C66.9809 13.3349 67.1329 13.5492 67.3381 13.7122C67.5434 13.8752 67.805 13.9567 68.1229 13.9567ZM72.0235 11.7109V14.5H71.3112V9.86364H71.9994V10.5881H72.0597C72.1684 10.3526 72.3334 10.1635 72.5548 10.0206C72.7761 9.87571 73.0619 9.80327 73.412 9.80327C73.7259 9.80327 74.0006 9.86766 74.2361 9.99645C74.4715 10.1232 74.6546 10.3164 74.7854 10.576C74.9162 10.8336 74.9816 11.1596 74.9816 11.554V14.5H74.2693V11.6023C74.2693 11.238 74.1747 10.9543 73.9855 10.7511C73.7964 10.5458 73.5368 10.4432 73.2068 10.4432C72.9794 10.4432 72.7761 10.4925 72.597 10.5911C72.42 10.6897 72.2801 10.8336 72.1775 11.0227C72.0748 11.2119 72.0235 11.4413 72.0235 11.7109Z" fill="black"/>
<path d="M40.0632 30.5H38.4474L43.1207 17.7727H44.7116L49.3849 30.5H47.7692L43.9659 19.7862H43.8665L40.0632 30.5ZM40.6598 25.5284H47.1726V26.8956H40.6598V25.5284ZM56.9341 26.5973V20.9545H58.4007V30.5H56.9341V28.8842H56.8347C56.611 29.369 56.263 29.7812 55.7907 30.1209C55.3184 30.4565 54.7218 30.6243 54.0009 30.6243C53.4043 30.6243 52.874 30.4938 52.41 30.2328C51.946 29.9676 51.5814 29.5699 51.3162 29.0396C51.0511 28.5051 50.9185 27.8319 50.9185 27.0199V20.9545H52.3851V26.9205C52.3851 27.6165 52.5798 28.1716 52.9693 28.5859C53.3629 29.0002 53.8642 29.2074 54.4732 29.2074C54.8378 29.2074 55.2086 29.1142 55.5856 28.9277C55.9667 28.7413 56.2857 28.4554 56.5426 28.0701C56.8036 27.6848 56.9341 27.1939 56.9341 26.5973ZM64.4414 30.6989C63.6459 30.6989 62.9437 30.4979 62.3347 30.0961C61.7256 29.69 61.2492 29.1183 60.9053 28.3809C60.5614 27.6393 60.3895 26.763 60.3895 25.7521C60.3895 24.7495 60.5614 23.8795 60.9053 23.142C61.2492 22.4046 61.7277 21.8349 62.3409 21.4331C62.954 21.0312 63.6625 20.8303 64.4662 20.8303C65.0877 20.8303 65.5786 20.9338 65.9391 21.141C66.3036 21.344 66.5812 21.576 66.7718 21.837C66.9665 22.0939 67.1177 22.3052 67.2255 22.4709H67.3497V17.7727H68.8164V30.5H67.3995V29.0334H67.2255C67.1177 29.2074 66.9644 29.427 66.7656 29.6921C66.5667 29.9531 66.2829 30.1872 65.9142 30.3944C65.5455 30.5974 65.0545 30.6989 64.4414 30.6989ZM64.6402 29.3814C65.2285 29.3814 65.7257 29.2281 66.1317 28.9215C66.5377 28.6108 66.8464 28.182 67.0577 27.6351C67.269 27.0841 67.3746 26.4482 67.3746 25.7273C67.3746 25.0147 67.271 24.3912 67.0639 23.8567C66.8567 23.3181 66.5501 22.8997 66.1441 22.6014C65.7381 22.2989 65.2368 22.1477 64.6402 22.1477C64.0188 22.1477 63.5009 22.3072 63.0866 22.6262C62.6764 22.9411 62.3678 23.3699 62.1606 23.9126C61.9576 24.4512 61.8561 25.0561 61.8561 25.7273C61.8561 26.4067 61.9597 27.024 62.1669 27.5792C62.3782 28.1302 62.6889 28.5694 63.099 28.8967C63.5133 29.2198 64.0271 29.3814 64.6402 29.3814ZM74.265 30.7237C73.6602 30.7237 73.1112 30.6098 72.6182 30.3819C72.1252 30.1499 71.7337 29.8164 71.4437 29.3814C71.1537 28.9422 71.0087 28.4119 71.0087 27.7905C71.0087 27.2436 71.1164 26.8003 71.3318 26.4606C71.5472 26.1167 71.8352 25.8474 72.1956 25.6527C72.5561 25.458 72.9538 25.313 73.3888 25.2177C73.828 25.1183 74.2692 25.0395 74.7125 24.9815C75.2925 24.907 75.7627 24.851 76.1232 24.8137C76.4878 24.7723 76.7529 24.704 76.9186 24.6087C77.0885 24.5134 77.1734 24.3477 77.1734 24.1115V24.0618C77.1734 23.4486 77.0056 22.9722 76.6701 22.6325C76.3386 22.2927 75.8352 22.1229 75.1599 22.1229C74.4598 22.1229 73.9108 22.2762 73.5131 22.5827C73.1154 22.8893 72.8357 23.2166 72.6741 23.5646L71.2821 23.0675C71.5307 22.4875 71.8621 22.0359 72.2764 21.7127C72.6949 21.3854 73.1506 21.1576 73.6436 21.0291C74.1408 20.8965 74.6296 20.8303 75.1102 20.8303C75.4168 20.8303 75.769 20.8675 76.1667 20.9421C76.5686 21.0125 76.9559 21.1596 77.3288 21.3833C77.7058 21.6071 78.0186 21.9447 78.2672 22.3963C78.5158 22.8479 78.64 23.4528 78.64 24.2109V30.5H77.1734V29.2074H77.0989C76.9994 29.4145 76.8337 29.6362 76.6017 29.8723C76.3697 30.1085 76.061 30.3094 75.6757 30.4751C75.2904 30.6409 74.8202 30.7237 74.265 30.7237ZM74.4888 29.4062C75.0688 29.4062 75.5577 29.2923 75.9554 29.0645C76.3573 28.8366 76.6597 28.5424 76.8627 28.182C77.0699 27.8216 77.1734 27.4425 77.1734 27.0447V25.7024C77.1113 25.777 76.9746 25.8453 76.7633 25.9075C76.5561 25.9655 76.3158 26.0173 76.0424 26.0629C75.7731 26.1043 75.51 26.1416 75.2532 26.1747C75.0004 26.2037 74.7954 26.2286 74.6379 26.2493C74.2568 26.299 73.9005 26.3798 73.569 26.4917C73.2417 26.5994 72.9766 26.763 72.7736 26.9826C72.5747 27.198 72.4753 27.4922 72.4753 27.8651C72.4753 28.3746 72.6638 28.7599 73.0408 29.021C73.4219 29.2778 73.9046 29.4062 74.4888 29.4062ZM84.9448 30.6989C84.0499 30.6989 83.2793 30.4876 82.633 30.065C81.9867 29.6424 81.4895 29.0603 81.1415 28.3187C80.7935 27.5771 80.6195 26.7299 80.6195 25.777C80.6195 24.8075 80.7976 23.952 81.1539 23.2104C81.5144 22.4647 82.0157 21.8826 82.6578 21.4641C83.3042 21.0415 84.0582 20.8303 84.9199 20.8303C85.5911 20.8303 86.196 20.9545 86.7346 21.2031C87.2731 21.4517 87.7144 21.7997 88.0582 22.2472C88.4021 22.6946 88.6155 23.2166 88.6983 23.8132H87.2317C87.1199 23.3782 86.8713 22.9929 86.486 22.6573C86.1048 22.3176 85.5911 22.1477 84.9448 22.1477C84.373 22.1477 83.8717 22.2969 83.4409 22.5952C83.0141 22.8893 82.6806 23.3057 82.4403 23.8443C82.2042 24.3787 82.0861 25.0064 82.0861 25.7273C82.0861 26.4647 82.2021 27.1069 82.4341 27.6538C82.6703 28.2006 83.0017 28.6253 83.4284 28.9277C83.8593 29.2302 84.3648 29.3814 84.9448 29.3814C85.3259 29.3814 85.6719 29.3151 85.9826 29.1825C86.2933 29.05 86.5564 28.8594 86.7718 28.6108C86.9873 28.3622 87.1406 28.0639 87.2317 27.7159H88.6983C88.6155 28.2794 88.4104 28.7869 88.0831 29.2385C87.7599 29.6859 87.3311 30.0422 86.7967 30.3074C86.2664 30.5684 85.6491 30.6989 84.9448 30.6989ZM91.5369 34.0795C91.2884 34.0795 91.0667 34.0588 90.872 34.0174C90.6773 33.9801 90.5426 33.9428 90.468 33.9055L90.8409 32.6129C91.1972 32.7041 91.5121 32.7372 91.7855 32.7124C92.0589 32.6875 92.3013 32.5653 92.5126 32.3457C92.728 32.1303 92.9248 31.7802 93.103 31.2955L93.3764 30.5497L89.8466 20.9545H91.4375L94.0724 28.5611H94.1719L96.8068 20.9545H98.3977L94.3459 31.892C94.1636 32.3851 93.9378 32.7931 93.6685 33.1163C93.3992 33.4436 93.0864 33.686 92.7301 33.8434C92.378 34.0008 91.9802 34.0795 91.5369 34.0795Z" fill="black"/>
<rect x="0.5" y="0.5" width="108" height="39" rx="4.5" stroke="#A6A6A6"/>
<defs>
<clipPath id="clip0_109_1598">
<rect width="24" height="24" fill="white" transform="translate(8 8)"/>
</clipPath>
</defs>
</svg>

<svg xmlns="http://www.w3.org/2000/svg" width="109" height="40" fill="none" viewBox="0 0 109 40">
  <rect width="108" height="39" x=".5" y=".5" fill="#fff" rx="4.5"/>
  <rect width="108" height="39" x=".5" y=".5" stroke="#A6A6A6" rx="4.5"/>
  <g clip-path="url(#a)">
    <path fill="#FE5000" d="M19.19 23.826a5.59 5.59 0 0 1-5.595 5.584A5.59 5.59 0 0 1 8 23.826a5.59 5.59 0 0 1 5.595-5.584 5.59 5.59 0 0 1 5.595 5.584Zm2.715-13.236h-7.986l10.094 18.82H32L21.905 10.59Z"/>
  </g>
  <path fill="#000" d="M39.749 14.5V8.318h.748v5.518h2.874v.664h-3.622Zm4.684 0V9.864h.713V14.5h-.713Zm.362-5.41a.506.506 0 0 1-.359-.141.456.456 0 0 1-.148-.341c0-.133.05-.247.148-.341.1-.095.22-.142.36-.142.138 0 .257.047.356.142.1.094.15.208.15.341 0 .133-.05.246-.15.341a.496.496 0 0 1-.357.142Zm4.94 1.812-.64.181c-.04-.107-.1-.21-.179-.31a.865.865 0 0 0-.313-.254 1.14 1.14 0 0 0-.51-.1c-.284 0-.52.065-.71.196-.187.129-.28.293-.28.492a.51.51 0 0 0 .192.42c.13.102.33.188.604.256l.688.17c.415.1.724.254.927.461.203.206.305.47.305.794 0 .266-.077.503-.23.713-.15.209-.362.374-.633.495a2.33 2.33 0 0 1-.948.18c-.473 0-.864-.102-1.174-.307-.31-.205-.506-.505-.589-.9l.676-.169c.065.25.186.437.365.562.182.124.418.187.71.187.332 0 .595-.07.79-.211.198-.143.296-.314.296-.514a.54.54 0 0 0-.169-.404c-.112-.11-.285-.193-.519-.248l-.773-.18c-.424-.101-.736-.257-.935-.469a1.133 1.133 0 0 1-.296-.8c0-.261.073-.493.22-.694a1.5 1.5 0 0 1 .607-.474 2.13 2.13 0 0 1 .875-.172c.46 0 .82.1 1.081.302.264.201.45.467.561.797Zm3.173-1.038v.603h-2.403v-.603h2.403Zm-1.703-1.111h.712v4.419c0 .201.03.352.088.453.06.098.137.165.23.199a.92.92 0 0 0 .298.048c.079 0 .143-.004.194-.012l.12-.024.145.64a1.491 1.491 0 0 1-.531.085c-.201 0-.399-.044-.592-.13a1.177 1.177 0 0 1-.477-.396c-.125-.177-.187-.4-.187-.67V8.753Zm4.668 5.844c-.447 0-.832-.099-1.156-.296a1.99 1.99 0 0 1-.745-.833c-.174-.358-.26-.775-.26-1.25s.086-.893.26-1.256c.175-.364.418-.648.73-.85.314-.206.68-.309 1.099-.309.241 0 .48.04.715.121.236.08.45.211.643.392.193.18.347.417.462.713.115.296.172.66.172 1.092v.302h-3.574v-.616h2.85a1.52 1.52 0 0 0-.157-.7 1.183 1.183 0 0 0-.441-.486 1.234 1.234 0 0 0-.67-.178c-.284 0-.53.07-.737.212a1.39 1.39 0 0 0-.474.543c-.11.223-.166.463-.166.718v.41c0 .35.06.648.181.891.123.242.293.426.51.553.218.124.47.187.758.187.187 0 .356-.027.507-.079.153-.054.285-.135.396-.241.11-.109.196-.244.256-.405l.689.193a1.526 1.526 0 0 1-.366.616 1.78 1.78 0 0 1-.634.41 2.35 2.35 0 0 1-.848.146Zm3.716-2.886V14.5h-.712V9.864h.688v.724h.06a1.33 1.33 0 0 1 .495-.567c.222-.145.507-.218.858-.218.313 0 .588.065.823.193.236.127.42.32.55.58.13.258.196.584.196.978V14.5h-.712v-2.898c0-.364-.095-.648-.284-.85-.19-.206-.449-.309-.779-.309-.227 0-.43.05-.61.148a1.058 1.058 0 0 0-.42.432 1.43 1.43 0 0 0-.153.688Zm8.534 2.886c-.419 0-.786-.1-1.102-.3a2.018 2.018 0 0 1-.736-.835c-.175-.358-.263-.777-.263-1.256 0-.483.088-.905.263-1.265.177-.36.422-.64.736-.839.316-.2.683-.299 1.102-.299.418 0 .785.1 1.099.3.316.198.561.478.736.838.177.36.266.782.266 1.265 0 .479-.089.898-.266 1.256-.175.358-.42.636-.736.836a2.01 2.01 0 0 1-1.1.299Zm0-.64c.318 0 .58-.082.785-.245a1.44 1.44 0 0 0 .456-.643 2.47 2.47 0 0 0 .147-.863c0-.31-.049-.599-.147-.866a1.46 1.46 0 0 0-.456-.65c-.206-.164-.467-.247-.785-.247s-.58.083-.785.248a1.46 1.46 0 0 0-.456.649 2.487 2.487 0 0 0-.148.866c0 .31.05.598.148.863.099.266.25.48.456.643.205.163.467.245.785.245Zm3.9-2.246V14.5h-.712V9.864H72v.724h.06c.11-.235.274-.424.496-.567.221-.145.507-.218.857-.218.314 0 .589.065.824.193a1.3 1.3 0 0 1 .55.58c.13.258.196.584.196.978V14.5h-.713v-2.898c0-.364-.094-.648-.284-.85-.189-.206-.448-.309-.778-.309-.228 0-.43.05-.61.148a1.059 1.059 0 0 0-.42.432 1.43 1.43 0 0 0-.154.688ZM40.063 30.5h-1.616l4.674-12.727h1.59L49.386 30.5H47.77l-3.803-10.714h-.1L40.064 30.5Zm.597-4.972h6.513v1.368H40.66v-1.368Zm16.274 1.07v-5.643h1.467V30.5h-1.467v-1.616h-.1a3.13 3.13 0 0 1-1.043 1.237c-.473.335-1.07.503-1.79.503-.597 0-1.127-.13-1.591-.391-.464-.265-.829-.663-1.094-1.193-.265-.535-.398-1.208-.398-2.02v-6.066h1.467v5.966c0 .696.195 1.252.584 1.666.394.414.895.621 1.504.621a2.49 2.49 0 0 0 1.113-.28c.38-.186.7-.472.957-.857.26-.385.391-.876.391-1.473Zm7.507 4.1c-.795 0-1.497-.2-2.106-.602-.61-.406-1.086-.978-1.43-1.715-.344-.742-.516-1.618-.516-2.629 0-1.002.172-1.872.516-2.61.344-.737.823-1.307 1.436-1.709.613-.402 1.322-.603 2.125-.603.622 0 1.113.104 1.473.311.365.203.642.435.833.696.194.257.346.468.453.634h.125v-4.698h1.466V30.5H67.4v-1.467h-.175a9.448 9.448 0 0 1-.46.66c-.198.26-.482.494-.85.701-.37.203-.86.305-1.474.305Zm.2-1.317c.587 0 1.085-.153 1.49-.46.407-.31.715-.739.927-1.286.211-.55.317-1.187.317-1.908 0-.712-.104-1.336-.311-1.87-.207-.539-.514-.957-.92-1.256-.406-.302-.907-.453-1.504-.453-.621 0-1.14.16-1.553.478-.41.315-.72.744-.926 1.287-.203.538-.305 1.143-.305 1.814 0 .68.104 1.297.31 1.852.212.551.523.99.933 1.318.414.323.928.484 1.541.484Zm9.624 1.343a3.878 3.878 0 0 1-1.647-.342 2.826 2.826 0 0 1-1.174-1c-.29-.44-.435-.97-.435-1.591 0-.547.107-.99.323-1.33a2.28 2.28 0 0 1 .864-.808c.36-.195.758-.34 1.193-.435.439-.1.88-.178 1.324-.236a56.63 56.63 0 0 1 1.41-.168c.365-.042.63-.11.796-.205.17-.096.254-.261.254-.498v-.05c0-.612-.167-1.089-.503-1.428-.331-.34-.835-.51-1.51-.51-.7 0-1.25.153-1.647.46-.398.306-.677.634-.839.982l-1.392-.498c.249-.58.58-1.031.994-1.354a3.728 3.728 0 0 1 1.368-.684 5.675 5.675 0 0 1 1.466-.199c.307 0 .659.038 1.057.112.402.07.789.218 1.162.441.377.224.69.562.938 1.013.249.452.373 1.057.373 1.815V30.5h-1.467v-1.293H77.1c-.1.207-.265.43-.497.665-.232.236-.541.437-.926.603-.386.166-.856.249-1.411.249Zm.224-1.318c.58 0 1.069-.114 1.466-.341a2.327 2.327 0 0 0 1.218-2.02v-1.343c-.062.075-.198.143-.41.205a6.93 6.93 0 0 1-.72.156 32.755 32.755 0 0 1-1.405.186 5.6 5.6 0 0 0-1.069.243 1.842 1.842 0 0 0-.795.49c-.2.216-.299.51-.299.883 0 .51.189.895.566 1.156.38.257.864.385 1.448.385ZM84.945 30.7c-.895 0-1.666-.211-2.312-.634-.646-.423-1.143-1.005-1.492-1.746-.348-.742-.522-1.59-.522-2.542 0-.97.179-1.825.535-2.567.36-.745.862-1.327 1.504-1.746.646-.422 1.4-.634 2.262-.634.671 0 1.276.125 1.815.373.538.249.98.597 1.323 1.044.344.448.557.97.64 1.566h-1.466c-.112-.435-.36-.82-.746-1.156-.381-.34-.895-.51-1.541-.51-.572 0-1.073.15-1.504.448-.427.294-.76.71-1 1.25-.237.534-.355 1.161-.355 1.882 0 .738.116 1.38.348 1.927.236.547.568.971.994 1.274.431.302.937.453 1.517.453.38 0 .727-.066 1.038-.198a2.14 2.14 0 0 0 .789-.572 2.19 2.19 0 0 0 .46-.895h1.466a3.397 3.397 0 0 1-.615 1.522 3.44 3.44 0 0 1-1.286 1.07c-.53.26-1.148.39-1.852.39Zm6.592 3.38c-.249 0-.47-.02-.665-.062a1.755 1.755 0 0 1-.404-.111l.373-1.293c.356.091.671.124.945.1.273-.026.515-.148.727-.367.215-.216.412-.566.59-1.05l.273-.746-3.53-9.596h1.591l2.635 7.607h.1l2.635-7.607h1.59l-4.051 10.938c-.182.493-.408.901-.678 1.224-.269.328-.582.57-.938.727-.352.158-.75.236-1.193.236Z"/>
  <defs>
    <clipPath id="a">
      <path fill="#fff" d="M8 8h24v24H8z"/>
    </clipPath>
  </defs>
</svg>
